outputs/icons/social/switch_user_round.svg

<svg xmlns="http://www.w3.org/2000/svg" width="1200" height="1200" fill="none"><g fill="#000" clip-path="url(#a)"><path d="M450 849.955c133.5 0 400 67 400 200v50c-.01 27.495-22.505 50-50 50H100c-27.495 0-49.991-22.505-50-50v-50c0-133 266.5-200 400-200M450 349.957c110.5 0 200 89.5 200 199.998-.01 110.495-89.505 200-200 200-110.494 0-199.991-89.505-200-200 0-110.498 89.5-199.998 200-199.998M950 305.036c0-21.48 25.29-32.944 41.455-18.8L1150 424.957 991.455 563.68C975.29 577.805 950 566.305 950 544.83v-44.873H850c-27.61 0-49.99-22.393-50-50v-50c0-27.614 22.385-50 50-50h100zM708.545 86.237C724.71 72.093 750 83.556 750 105.035v44.923h100c27.615 0 50 22.385 50 50v50c-.01 27.606-22.39 49.999-50 49.999H750v44.873c0 21.473-25.29 32.975-41.455 18.848L550 224.958z"/></g><defs><clipPath id="a"><path fill="#fff" d="M0 0h1200v1200H0z"/></clipPath></defs></svg>

<svg width="1200" height="1200" viewBox="0 0 1200 1200" fill="none" xmlns="http://www.w3.org/2000/svg"><g clip-path="url(#clip0_788_2120)"><path d="M450 849.955C583.5 849.955 850 916.955 850 1049.955V1099.955C849.99 1127.45 827.495 1149.955 800 1149.955H100C72.505 1149.955 50.009 1127.45 50 1099.955V1049.955C50 916.955 316.5 849.955 450 849.955Z" fill="black"/><path d="M450 349.957C560.5 349.957 650 439.457 650 549.955C649.99 660.45 560.495 749.955 450 749.955C339.506 749.955 250.009 660.45 250 549.955C250 439.457 339.5 349.957 450 349.957Z" fill="black"/><path d="M950 305.036C950 283.556 975.29 272.092 991.455 286.236L1150 424.957L991.455 563.68C975.29 577.805 950 566.305 950 544.83V499.957H850C822.39 499.957 800.01 477.564 800 449.957V399.957C800 372.343 822.385 349.957 850 349.957H950V305.036Z" fill="black"/><path d="M708.545 86.237C724.71 72.093 750 83.556 750 105.035V149.958H850C877.615 149.958 900 172.343 900 199.958V249.958C899.99 277.564 877.61 299.957 850 299.957H750V344.83C750 366.303 724.71 377.805 708.545 363.678L550 224.958L708.545 86.237Z" fill="black"/></g><defs><clipPath id="clip0_788_2120"><path width="24" fill="white" d="M0 0H1200V1200H0V0z"/></clipPath></defs></svg>
